X: 116
T:Muiñeira de Campolameiro
M:6/8
L:1/8
Q:200
C:Trad
R:Muiñeira
K:C
CEF | GEG cBA |GEG BAG | FDF AGF| GFE CEF |GEG cBA| GEG BAG| FDF AGF |1
E3 :|2
E2"F."c E/"F."c/E{C}E/"F."c/ |: EDE FED |EDC EDC |DCB, FED| EDC E/"F."c/
E{C}E/"F."c/ | EDE FED|
EDC EDC |DCB, FED |1 {B,}C2 "F."c E/"F."c/E{C}E/"F."c/ :|2 {B,}C3 ||

